X: 6076
T: Captain Bing
R: polka
M: 2/4
K: Gmajor
|:g>f gd|BG GA/B/|c/B/A a>g|fd ef|
g>f gd|BG GA/B/|c/B/A dF|1 G2 G>d:|2 G2 G>A||
|:BG dG|BG GA/B/|c/B/A eA|cA A>c|
BG dG|BG GA/B/|c/B/A dF|1 G2 G>A:|2 G2 G>d||

